scalable/actions/system-lock-screen.svg

<svg xmlns="http://www.w3.org/2000/svg" width="24" height="24" version="1">
  <defs>
    <linearGradient id="a">
      <stop offset="0" stop-color="#fff"/>
      <stop offset="1" stop-color="#fff" stop-opacity="0"/>
    </linearGradient>
  </defs>
  <path fill="#333" d="M12.208984 2.84375c-2.9545606 0-5.3320309 2.74118-5.3320309 6.1484375v1.3242185h-1.40625c-.5617114 0-1.0136719.453914-1.0136719 1.015625v9.052735c0 .561711.4519605 1.013672 1.0136719 1.013672H18.605469c.561711 0 1.013672-.451961 1.013672-1.013672v-9.052735c0-.561711-.451961-1.015625-1.013672-1.015625h-1.0625V8.9921875C17.542974 5.58493 15.163545 2.84375 12.208984 2.84375zm0 1.6464844c1.846561 0 3.333985 2.2289378 3.333985 4.9980468v.8281248H8.8769531v-.8281248c0-2.769109 1.4854699-4.9980468 3.3320309-4.9980468z"/>
</svg>

<?xml version="1.0" encoding="UTF-8" standalone="no"?>
<!-- Created with Inkscape (http://www.inkscape.org/) -->

<svg
   xmlns:dc="http://purl.org/dc/elements/1.1/"
   xmlns:cc="http://creativecommons.org/ns#"
   xmlns:rdf="http://www.w3.org/1999/02/22-rdf-syntax-ns#"
   xmlns:svg="http://www.w3.org/2000/svg"
   xmlns="http://www.w3.org/2000/svg"
   xmlns:xlink="http://www.w3.org/1999/xlink"
   xmlns:sodipodi="http://sodipodi.sourceforge.net/DTD/sodipodi-0.dtd"
   xmlns:inkscape="http://www.inkscape.org/namespaces/inkscape"
   id="svg2"
   width="24"
   height="24"
   version="1.0"
   sodipodi:docname="system-lock-screen.svg"
   inkscape:version="0.92.3 (2405546, 2018-03-11)">
  <metadata
     id="metadata43">
    <rdf:RDF>
      <cc:Work
         rdf:about="">
        <dc:format>image/svg+xml</dc:format>
        <dc:type
           rdf:resource="http://purl.org/dc/dcmitype/StillImage" />
        <dc:title></dc:title>
      </cc:Work>
    </rdf:RDF>
  </metadata>
  <sodipodi:namedview
     pagecolor="#ffffff"
     bordercolor="#666666"
     borderopacity="1"
     objecttolerance="10"
     gridtolerance="10"
     guidetolerance="10"
     inkscape:pageopacity="0"
     inkscape:pageshadow="2"
     inkscape:window-width="1366"
     inkscape:window-height="717"
     id="namedview41"
     showgrid="false"
     showguides="true"
     inkscape:guide-bbox="true"
     inkscape:zoom="20.625"
     inkscape:cx="2.3757576"
     inkscape:cy="19.757576"
     inkscape:window-x="0"
     inkscape:window-y="25"
     inkscape:window-maximized="1"
     inkscape:current-layer="svg2" />
  <defs
     id="defs4">
    <linearGradient
       id="linearGradient6602">
      <stop
         id="stop6604"
         style="stop-color:#fff"
         offset="0" />
      <stop
         id="stop6606"
         style="stop-color:#fff;stop-opacity:0"
         offset="1" />
    </linearGradient>
    <radialGradient
       id="radialGradient6512"
       cx="12.244"
       cy="4.8631001"
       r="21"
       gradientTransform="matrix(1.3156,0.019277,-0.012249,1.0776,-3.2306,6.0779)"
       gradientUnits="userSpaceOnUse">
      <stop
         id="stop6714"
         style="stop-color:#5a5a5a"
         offset="0" />
      <stop
         id="stop6716"
         style="stop-color:#323232"
         offset="1" />
    </radialGradient>
    <linearGradient
       id="linearGradient6514"
       x1="24.875"
       x2="25"
       y1="29"
       y2="3"
       gradientTransform="matrix(0.95121,0,0,1.08,1.171,1.7202)"
       gradientUnits="userSpaceOnUse">
      <stop
         id="stop6720"
         style="stop-color:#0a0a0a"
         offset="0" />
      <stop
         id="stop6722"
         style="stop-color:#1e1e1e"
         offset="1" />
    </linearGradient>
    <radialGradient
       id="radialGradient6517"
       cx="1"
       cy="5.5643001"
       r="23"
       gradientTransform="matrix(0.95555,0,0,0.69715,1.0668,7.8457)"
       gradientUnits="userSpaceOnUse"
       xlink:href="#linearGradient6602" />
    <linearGradient
       id="linearGradient6520"
       x1="20.146999"
       x2="20.104"
       y1="-0.0004971"
       y2="31.983"
       gradientTransform="matrix(0.959,0,0,1.0656,0.98368,1.9503)"
       gradientUnits="userSpaceOnUse">
      <stop
         id="stop6546"
         style="stop-color:#f0f0f0"
         offset="0" />
      <stop
         id="stop6548"
         style="stop-color:#d2d2d2"
         offset="1" />
    </linearGradient>
    <radialGradient
       id="radialGradient6523"
       cx="24"
       cy="38.640999"
       r="8"
       gradientTransform="matrix(1.8286,-3.144e-8,0,0.43815,-19.887,26.069)"
       gradientUnits="userSpaceOnUse"
       xlink:href="#linearGradient6602" />
    <linearGradient
       id="linearGradient6526"
       x1="320.28"
       x2="320.28"
       y1="86.913002"
       y2="93.379997"
       gradientTransform="matrix(0.99641,0,0,1.0001,-294.88,-51.013)"
       gradientUnits="userSpaceOnUse">
      <stop
         id="stop6622"
         style="stop-color:#787878"
         offset="0" />
      <stop
         id="stop6624"
         style="stop-color:#bebebe"
         offset=".35047" />
      <stop
         id="stop6626"
         style="stop-color:#c8c8c8"
         offset=".58327" />
      <stop
         id="stop6628"
         style="stop-color:#e6e6e6"
         offset=".7227" />
      <stop
         id="stop6630"
         style="stop-color:#8c8c8c"
         offset="1" />
    </linearGradient>
    <linearGradient
       id="linearGradient6528"
       x1="21.718"
       x2="21.686001"
       y1="35.909"
       y2="42.361"
       gradientUnits="userSpaceOnUse">
      <stop
         id="stop6734"
         style="stop-color:#505050"
         offset="0" />
      <stop
         id="stop6736"
         style="stop-color:#a0a0a0"
         offset=".35047" />
      <stop
         id="stop6738"
         style="stop-color:#aaa"
         offset=".58327" />
      <stop
         id="stop6740"
         style="stop-color:#bebebe"
         offset=".7227" />
      <stop
         id="stop6742"
         style="stop-color:#6e6e6e"
         offset="1" />
    </linearGradient>
    <radialGradient
       id="radialGradient6531"
       cx="6.7027001"
       cy="73.615997"
       r="7.2284002"
       gradientTransform="matrix(1.9368,0,0,0.41503,11.018,12.447)"
       gradientUnits="userSpaceOnUse">
      <stop
         id="stop10693"
         offset="0" />
      <stop
         id="stop10695"
         style="stop-opacity:0"
         offset="1" />
    </radialGradient>
  </defs>
  <path
     style="opacity:1;fill:#333333;fill-opacity:1;stroke:none;stroke-width:1.67605281;stroke-miterlimit:4;stroke-dasharray:none;stroke-opacity:1"
     d="M 12.208984 2.84375 C 9.2544234 2.84375 6.8769531 5.58493 6.8769531 8.9921875 L 6.8769531 10.316406 L 5.4707031 10.316406 C 4.9089917 10.316406 4.4570312 10.77032 4.4570312 11.332031 L 4.4570312 20.384766 C 4.4570312 20.946477 4.9089917 21.398438 5.4707031 21.398438 L 18.605469 21.398438 C 19.16718 21.398438 19.619141 20.946477 19.619141 20.384766 L 19.619141 11.332031 C 19.619141 10.77032 19.16718 10.316406 18.605469 10.316406 L 17.542969 10.316406 L 17.542969 8.9921875 C 17.542974 5.58493 15.163545 2.84375 12.208984 2.84375 z M 12.208984 4.4902344 C 14.055545 4.4902344 15.542969 6.7191722 15.542969 9.4882812 L 15.542969 10.316406 L 8.8769531 10.316406 L 8.8769531 9.4882812 C 8.8769531 6.7191722 10.362423 4.4902344 12.208984 4.4902344 z "
     id="rect850" />
</svg>
